X:400
T:No Man's Jig,Sleights
T:Sleights sword dance(5)
T:Butter'd Peas,aka
M:4/4
L:1/8
Q:1/2=100
S:Sword Dance Tunes,CJS
O:England
A:Sleights
Z:Chris Partington
K:G
B2d2 d2cB|c2e2 e4|B2d2 d2cB|c2A2 A4|!
B2d2 d2cB|c2e2 e2c2|B4A4|G8:|!
|:g2f2 e2d2|efg2 d4|g2f2 e2d2|efg2 a4|!
g2f2 e2d2|efg2 d2c2|B4A4|G8|]
